X: 23
T: Castle Kelly
Z: JACKB
S: https://thesession.org/tunes/21#setting47118
R: reel
M: 4/4
L: 1/8
K: Amin
A2 cA ABcA|GBEG G2 EG|A2 cA GAcd|egdB cAAG|
A4 ABcA|GBEG G2 EG|A2 cA GAcd|(3efg dB cA A2||
agec d2 ed|cAGE G2 eg|agec d2 cd|eaag a2 ba|
gedc deed|cAGE G2 EG|A2 cA GAcd|egdB cAAG||

